X:1
T:Frenor, LM
T:Frenor, LM
T:Carmina Sacra, by Lowell Mason, 1844
T:Public Domain Courtesy of the Cyber Hymnal™
C:Carmina Sacra, by Lowell Mason, 1844
Z:Public Domain
Z:Courtesy of the Cyber Hymnal™
%%score 1 2 3 4
L:1/8
Q:1/4=113
M:3/4
K:D
V:1 treble 
V:2 treble 
V:3 treble-8 
V:4 bass 
V:1
 A2 | (A2 d2) d2 | d4 A2 | A4 A2 | A4 ^G2 | A4 A2 | A4 d2 | (d2 c2) B2 | !fermata!c2 z A AA | %9
 A3 A BB | A4 A2 | (A2 d2) c2 | (dfed) (cB) | (AB A2) G2 | F4 |] %15
V:2
 D2 | D4 D2 | D4 F2 | (F2 EF) G2 | F4 E2 | E4 E2 | D4 F2 | E4 E2 | !fermata!E2 z F DE | F3 D DG | %10
 (F2 E2) A2 | A4 A2 | (AdcB) (AG) | (FE D2) C2 | D4 |] %15
V:3
 F2 | F4 B2 | A4 d2 | c4 B2 | d4 A2 | c4 A2 | F4 B2 | (B2 A2) ^G2 | !fermata!A2 z A FG | A3 d Be | %10
 (d2 c2) A2 | d4 e2 | (f2 ed) (cB) | (AG F2) E2 | D4 |] %15
V:4
 D,2 | D,4 G,2 | F,4 D,2 | A,4 A,,2 | D,4 E,2 | A,4 C,2 | D,4 B,,2 | E,4 E,2 | %8
 !fermata!A,,2 z D, D,D, | D,3 F, G,E, | A,4 (A,G,) | F,4 A,2 | (D2 CB,) (A,G,) | (F,G, A,2) A,,2 | %14
 D,4 |] %15

